svg/regular/bx-user-x.svg

<svg xmlns="http://www.w3.org/2000/svg" width="24" height="24"><path fill="none" d="M10 8c0-1.178-.822-2-2-2s-2 .822-2 2 .822 2 2 2 2-.822 2-2z"/><path d="m15.706 15.706 2.293-2.293 2.294 2.294 1.414-1.414L19.414 12l2.293-2.293-1.414-1.414L18 10.586l-2.293-2.293-1.414 1.414 2.292 2.292-2.293 2.293zM12 8c0-2.28-1.72-4-4-4S4 5.72 4 8s1.72 4 4 4 4-1.72 4-4zM6 8c0-1.178.822-2 2-2s2 .822 2 2-.822 2-2 2-2-.822-2-2zM4 18c0-1.654 1.346-3 3-3h2c1.654 0 3 1.346 3 3v1h2v-1c0-2.757-2.243-5-5-5H7c-2.757 0-5 2.243-5 5v1h2v-1z"/></svg>

<svg xmlns="http://www.w3.org/2000/svg" width="24" height="24" viewBox="0 0 24 24"><path fill="none" d="M10,8c0-1.178-0.822-2-2-2S6,6.822,6,8s0.822,2,2,2S10,9.178,10,8z"/><path d="M15.706 15.706L17.999 13.413 20.293 15.707 21.707 14.293 19.414 12 21.707 9.707 20.293 8.293 18 10.586 15.707 8.293 14.293 9.707 16.585 11.999 14.292 14.292zM12 8c0-2.28-1.72-4-4-4S4 5.72 4 8s1.72 4 4 4S12 10.28 12 8zM6 8c0-1.178.822-2 2-2s2 .822 2 2-.822 2-2 2S6 9.178 6 8zM4 18c0-1.654 1.346-3 3-3h2c1.654 0 3 1.346 3 3v1h2v-1c0-2.757-2.243-5-5-5H7c-2.757 0-5 2.243-5 5v1h2V18z"/></svg>
